static/favicon.svg

<svg height="256" viewBox="0 0 100 100" width="256" xmlns="http://www.w3.org/2000/svg"><rect fill="#84cc16" height="100" rx="20" width="100"/><path d="m50.39 34.7h-10.58v36.19q-.48.21-1.43.39-.94.17-1.99.17-2.17 0-3.09-.8-.9-.81-.9-2.7v-33.25h-12.4q-.34-.49-.59-1.26-.25-.77-.25-1.75 0-1.54.74-2.34.73-.81 1.99-.81h30.46q.28.42.52 1.19.25.77.25 1.68 0 3.29-2.73 3.29zm16.52 10.64v25.55q-.49.21-1.37.39-.87.17-1.92.17-2.03 0-3.01-.76-.98-.78-.98-2.6v-22.96q0-1.75.7-2.83.7-1.09 2.24-2.07 2.02-1.26 5.18-2.1 3.15-.84 6.93-.84 6.16 0 6.16 3.5 0 .84-.28 1.58-.28.73-.63 1.29-.7-.14-1.75-.28-1.05-.14-2.24-.14-2.8 0-5.11.6-2.31.59-3.92 1.5z" fill="#fff"/></svg>

<svg xmlns="http://www.w3.org/2000/svg" width="256" height="256" viewBox="0 0 100 100"><rect width="100" height="100" rx="20" fill="#84cc16"></rect><path fill="#fff" d="M50.39 34.70L39.81 34.70L39.81 70.89Q39.33 71.10 38.38 71.28Q37.44 71.45 36.39 71.45L36.39 71.45Q34.22 71.45 33.30 70.65Q32.40 69.84 32.40 67.95L32.40 67.95L32.40 34.70L20.00 34.70Q19.66 34.21 19.41 33.44Q19.16 32.67 19.16 31.69L19.16 31.69Q19.16 30.15 19.90 29.35Q20.63 28.54 21.89 28.54L21.89 28.54L52.35 28.54Q52.63 28.96 52.87 29.73Q53.12 30.50 53.12 31.41L53.12 31.41Q53.12 34.70 50.39 34.70L50.39 34.70ZM66.91 45.34L66.91 70.89Q66.42 71.10 65.54 71.28Q64.67 71.45 63.62 71.45L63.62 71.45Q61.59 71.45 60.61 70.69Q59.63 69.91 59.63 68.09L59.63 68.09L59.63 45.13Q59.63 43.38 60.33 42.30Q61.03 41.21 62.57 40.23L62.57 40.23Q64.59 38.97 67.75 38.13Q70.90 37.29 74.68 37.29L74.68 37.29Q80.84 37.29 80.84 40.79L80.84 40.79Q80.84 41.63 80.56 42.37Q80.28 43.10 79.93 43.66L79.93 43.66Q79.23 43.52 78.18 43.38Q77.13 43.24 75.94 43.24L75.94 43.24Q73.14 43.24 70.83 43.84Q68.52 44.43 66.91 45.34L66.91 45.34Z"></path></svg>
